contributed-vectors/aria2app.svg

<svg width="192" height="192" version="1.1" viewBox="0 0 192 192" xmlns="http://www.w3.org/2000/svg">
 <circle cx="96" cy="96" r="88" opacity=".63" style="fill:#ff837d;opacity:1"/>
 <path d="m88 52v36h16v-36h-16zm-12.957 28.207-14.086 7.5859 28 52h14.086l28-52-14.086-7.5859-8.5039 15.793h-24.906l-8.5039-15.793zm17.119 31.793h7.6758l-3.8379 7.127-3.8379-7.127z" style="color-rendering:auto;color:#000000;dominant-baseline:auto;fill:#fff;font-feature-settings:normal;font-variant-alternates:normal;font-variant-caps:normal;font-variant-ligatures:normal;font-variant-numeric:normal;font-variant-position:normal;image-rendering:auto;isolation:auto;mix-blend-mode:normal;shape-padding:0;shape-rendering:auto;solid-color:#000000;text-decoration-color:#000000;text-decoration-line:none;text-decoration-style:solid;text-indent:0;text-orientation:mixed;text-transform:none;white-space:normal"/>
</svg>

<svg xmlns="http://www.w3.org/2000/svg" width="192" height="192"><circle cx="96" cy="96" r="88" opacity=".63" style="fill:#ff837d;opacity:1"/><path d="M88 52v36h16V52H88zM75.043 80.207l-14.086 7.586 28 52h14.086l28-52-14.086-7.586L108.453 96H83.547l-8.504-15.793zM92.162 112h7.676L96 119.127 92.162 112z" style="color-rendering:auto;color:#000;dominant-baseline:auto;fill:#fff;font-feature-settings:normal;font-variant-alternates:normal;font-variant-caps:normal;font-variant-ligatures:normal;font-variant-numeric:normal;font-variant-position:normal;image-rendering:auto;isolation:auto;mix-blend-mode:normal;shape-padding:0;shape-rendering:auto;solid-color:#000;text-decoration-color:#000;text-decoration-line:none;text-decoration-style:solid;text-indent:0;text-orientation:mixed;text-transform:none;white-space:normal"/></svg>
